dist/img/icons/star-f.svg

<svg width="17" height="16" viewBox="0 0 17 16" fill="none" xmlns="http://www.w3.org/2000/svg">
<path d="M8.02447 0.963524C8.17415 0.502869 8.82585 0.50287 8.97553 0.963525L10.5206 5.71885C10.5876 5.92486 10.7795 6.06434 10.9962 6.06434H15.9962C16.4806 6.06434 16.6819 6.68415 16.2901 6.96885L12.245 9.9078C12.0697 10.0351 11.9964 10.2608 12.0633 10.4668L13.6084 15.2221C13.7581 15.6828 13.2309 16.0659 12.839 15.7812L8.79389 12.8422C8.61865 12.7149 8.38135 12.7149 8.20611 12.8422L4.16099 15.7812C3.76913 16.0659 3.24189 15.6828 3.39157 15.2221L4.93667 10.4668C5.0036 10.2608 4.93027 10.0351 4.75503 9.9078L0.709911 6.96885C0.318054 6.68415 0.519443 6.06434 1.0038 6.06434H6.00385C6.22046 6.06434 6.41244 5.92486 6.47937 5.71885L8.02447 0.963524Z" fill="#FFC700"/>
</svg>

<svg width="17" height="16" fill="none" xmlns="http://www.w3.org/2000/svg"><path d="M8.024.964a.5.5 0 01.952 0l1.545 4.755a.5.5 0 00.475.345h5a.5.5 0 01.294.905l-4.045 2.939a.5.5 0 00-.182.559l1.545 4.755a.5.5 0 01-.769.56l-4.045-2.94a.5.5 0 00-.588 0l-4.045 2.94a.5.5 0 01-.77-.56l1.546-4.755a.5.5 0 00-.182-.56L.71 6.97a.5.5 0 01.294-.905h5a.5.5 0 00.475-.345L8.024.964z" fill="#FFC700"/></svg>
